X:3232
L:1/8
M:4/4
K:Ador
 dB | cAAG A2 dB | cA A2 dBAB | cAAG A2 (3Bcd | efge dBAB | cAAG A2 dB | cA A2 dBAB | 
 cAAG A2 (3Bcd | efge dega || b2 gb a2 ga | bgge dega | bg g2 aged | efge dega b2 gb a2 ga | 
 bgge dega | bg g2 aged | efge dBGB :|

